X:1
T:Are You Ready for the Judgment Day?
T:Are You Ready for the Judgment Day?
T:Charles Millard Fillmore
T:Charles Millard Fillmore, 1893
T:Public Domain Courtesy of the Cyber Hymnal™
T:Public Domain Courtesy of the Cyber Hymnal™
T:Public Domain Courtesy of the Cyber Hymnal™
C:Charles Millard Fillmore
Z:Public Domain
Z:Courtesy of the Cyber Hymnal™
%%score 1 2 ( 3 4 )
L:1/8
Q:1/4=88
M:4/4
K:Bb
V:1 treble 
V:2 treble 
V:3 bass 
V:4 bass 
V:1
 DE | FFFF FB A>G | FEDE F2 DD | EEEE EGFE | DEFG F2 FF | BBBB BBcd | eBGE c2 BG | FFBc ddBd | %8
w: 1.~Christ the|Lord has gone to glo- ry, But He’s|com- ing back a- gain; He is|com- ing with His an- gels and A|sword of fier- y flame; Then all|na- tions, tribes and peo- ple shall Be|ga- thered round His throne To re-|ceive re- ward and re- com- pense For|
w: 2.~There will|be a sep- a- ra- tion On that|fi- nal judg- ment day; On the|right, the good; the left, the bad Who|walked in sin’s broad way; “Come, ye|bless- èd,” then the Judge will say To|those up- on the right, But “de-|part” to those up- on the left, “To|
w: 3.~If you|spend your time in seek- ing Af- ter|wealth and earth- ly fame, Un- re-|pent- ant, dis- be- liev- ing in His|ho- ly bless- èd name, If you|live in world- ly plea- sures and The|Lord of life de- ny, In- dig-|na- tion, wrath and an- guish is Your|
w: 4.~Now pre-|pare to meet your Mak- er, Choose to-|day the bet- ter part; While you|hear His ear- nest plead- ing voice, Oh,|hard- en not your heart; Seek Him|while He may be found, and call Up-|on Him while He’s near, Lest He|laugh at your ca- lam- i- ty And|
 ccBA B2 ||"^Refrain" [DB][FA] | [EG]<[EG] [EG][FA] [GB]2 [EG]2 | [DF]6 [DB][Fd] | %12
w: all that they have done.||||
w: dark- est end- less night.”|Are you|rea- dy for that judg- ment|day? Are you|
w: por- tion when you die.||||
w: mock when comes your fear.||||
 [=Ec]<[Ec] [Ec][Ed] [Ec]2 [EB]2 | [FA]6 [FA][FA] x8 | [FB][FB][Fc][Fc] [Fd]2 [FB][FB] | %15
w: |||
w: rea- dy for that judg- ment|day? You must|stand be- fore the Lord To re-|
w: |||
w: |||
 [Fc][Fc][Fd][_Ad] !fermata![Ge]2 [GB][EG] | [DF]<[DB] [DB][Ec] [DB]2 [CA]2 | [DB]6 |] %18
w: |||
w: ceive your just re- ward— Are you|rea- dy for that judg- ment|day?|
w: |||
w: |||
V:2
 [B,D][CE] | [DF]B,[DF]B, [DF][DB] [FA]>[EG] | [DF][CE][B,D][CE] [DF]B,[B,D]F, | %3
 [CE]F,[CE]F, [CE][EG][DF][CE] | [B,D][CE][DF][EG] ([DF]B,)[DF]B, | [DB]F[DB]F [DB]F[Ec][Fd] | %6
 [Ge]BGE ([Ec]G)[GB][EG] | [DF]B,[DB][Ec] [Fd]F[DB]F | [Ec]F[DB][CA] [DB]2 || x2 | x8 | x8 | x8 | %13
 x16 | x8 | x8 | x8 | x6 |] %18
V:3
 z2 | [D,,B,,]2 z2 [D,,B,,]2 z2 | [D,,B,,]2 z2 [D,,B,,]2 z2 | F,,2 z2 F,,2 z2 | %4
 [B,,,B,,]2 z2 [B,,,B,,]2 z2 | [B,,,B,,]2 z2 [B,,,B,,]2 z2 | [E,,E,]2 z2 [E,,E,]2 z2 | %7
 [F,,F,]2 z2 [F,,F,]2 z2 | [F,,F,]2 z2 [B,,,B,,]2 || [B,,B,][D,B,] | %10
 [E,B,]<[E,B,] [E,B,][E,B,] [E,B,]2 [E,B,]2 | [B,,B,]6 [B,,B,][B,,B,] | %12
 [C,B,]<[C,B,] [C,B,][C,B,] [C,B,]2 [C,C]2 | %13
 [F,C]6 [E,C][E,C][D,B,][D,B,][C,A,][C,A,] [B,,B,]2 [D,B,][D,B,] | %14
 [F,A,][F,A,]B,B, !fermata![E,B,]2 [E,B,][E,B,] | [F,B,]<[F,B,] [F,B,]F, F,2 F,2 | [B,,F,]6 x2 | %17
 x6 |] %18
V:4
 x2 | x8 | x8 | x8 | x8 | x8 | x8 | x8 | x6 || x2 | x8 | x8 | x8 | x16 | x2 B,B, x4 | %15
 x3 F, F,2 F,2 | x8 | x6 |] %18

